synths/sTSLA.svg

<svg width="480" height="480" viewBox="0 0 480 480" fill="none" xmlns="http://www.w3.org/2000/svg"><mask id="mask0-702413" maskUnits="userSpaceOnUse" x="0" y="0" width="480" height="480"><circle cx="240" cy="240" r="240" fill="url(#paint0_linear-146694)"/></mask><g mask="url(#mask0-702413)"><circle cx="240" cy="240" r="240" fill="#31D8A4"/><circle cx="240" cy="240" r="208" fill="#fff"/></g><circle cx="240" cy="240" r="184" fill="#0E052F"/><path d="M241.053 187.825l23.914-29.252c29.963 1.633 57.867 8.777 83.279 20.445l-1.42-.589c-8.001 10.421-18.552 18.512-30.726 23.394l-.493.174c-1.411-13.911-11.15-17.304-42.069-17.304L241.063 368l-32.668-183.346c-30.726 0-40.466 3.423-41.886 17.324-12.657-5.017-23.199-13.07-31.074-23.288l-.125-.165c23.972-11.097 51.876-18.261 81.249-19.885l.59-.029 23.914 29.214h-.01zm0-37.701c1.034-.02 2.251-.02 3.469-.02 38.33 0 74.766 8.121 107.676 22.737l-1.691-.667c2.29-3.809 4.474-8.246 6.28-12.867l.213-.609c-34.311-14.143-74.119-22.456-115.85-22.698h-.097c-41.818.232-81.636 8.546-118.053 23.472l2.106-.764c2.165 5.365 4.339 9.812 6.793 14.095l-.3-.561c31.287-13.998 67.8-22.147 106.227-22.147 1.14 0 2.271.009 3.401.019h-.174v.01z" fill="#fff"/><defs><linearGradient id="paint0_linear-146694" x1="240" y1="0" x2="240" y2="701.818" gradientUnits="userSpaceOnUse"><stop stop-color="#08021E"/><stop offset="1" stop-color="#1F0777"/></linearGradient></defs></svg>

<svg width="480" height="480" viewBox="0 0 480 480" fill="none" xmlns="http://www.w3.org/2000/svg">
<mask id="mask0-702413" mask-type="alpha" maskUnits="userSpaceOnUse" x="0" y="0" width="480" height="480">
<circle cx="240" cy="240" r="240" fill="url(#paint0_linear-146694)"/>
</mask>
<g mask="url(#mask0-702413)">
<circle cx="240" cy="240" r="240" fill="#31D8A4"/>
<circle cx="240" cy="240" r="208" fill="white"/>
</g>
<circle cx="240" cy="240" r="184" fill="#0E052F"/>
<path d="M241.053 187.825L264.967 158.573C294.93 160.206 322.834 167.35 348.246 179.018L346.826 178.429C338.825 188.85 328.274 196.941 316.1 201.823L315.607 201.997C314.196 188.086 304.457 184.693 273.538 184.693L241.063 368L208.395 184.654C177.669 184.654 167.929 188.077 166.509 201.978C153.852 196.961 143.31 188.908 135.435 178.69L135.31 178.525C159.282 167.428 187.186 160.264 216.559 158.64L217.149 158.611L241.063 187.825H241.053ZM241.053 150.124C242.087 150.104 243.304 150.104 244.522 150.104C282.852 150.104 319.288 158.225 352.198 172.841L350.507 172.174C352.797 168.365 354.981 163.928 356.787 159.307L357 158.698C322.689 144.555 282.881 136.242 241.15 136H241.053C199.235 136.232 159.417 144.546 123 159.472L125.106 158.708C127.271 164.073 129.445 168.52 131.899 172.803L131.599 172.242C162.886 158.244 199.399 150.095 237.826 150.095C238.966 150.095 240.097 150.104 241.227 150.114H241.053V150.124Z" fill="white"/>
<defs>
<linearGradient id="paint0_linear-146694" x1="240" y1="0" x2="240" y2="701.818" gradientUnits="userSpaceOnUse">
<stop stop-color="#08021E"/>
<stop offset="1" stop-color="#1F0777"/>
</linearGradient>
</defs>
</svg>
